lib/svgs/pause.svg

<svg xmlns="http://www.w3.org/2000/svg" viewBox="0 0 20 20">
    <path fill="#000" fill-rule="evenodd" d="M10,2 C5.582,2 2,5.582 2,10 C2,14.418 5.582,18 10,18 C14.418,18 18,14.418 18,10 C18,5.582 14.418,2 10,2 L10,2 Z M10,3.2 C13.75,3.2 16.8,6.25 16.8,10 C16.8,13.75 13.75,16.8 10,16.8 C6.25,16.8 3.2,13.75 3.2,10 C3.2,6.25 6.25,3.2 10,3.2 L10,3.2 Z M8.0021,13.3203 C7.6701,13.3203 7.4021,13.0513 7.4021,12.7203 L7.4021,7.2793 C7.4021,6.9483 7.6701,6.6793 8.0021,6.6793 C8.3341,6.6793 8.6021,6.9483 8.6021,7.2793 L8.6021,12.7203 C8.6021,13.0513 8.3341,13.3203 8.0021,13.3203 L8.0021,13.3203 Z M11.9982,13.3203 C11.6662,13.3203 11.3982,13.0513 11.3982,12.7203 L11.3982,7.2793 C11.3982,6.9483 11.6662,6.6793 11.9982,6.6793 C12.3302,6.6793 12.5982,6.9483 12.5982,7.2793 L12.5982,12.7203 C12.5982,13.0513 12.3302,13.3203 11.9982,13.3203 L11.9982,13.3203 Z"/>
</svg>

<svg xmlns="http://www.w3.org/2000/svg" viewBox="0 0 20 20">
    <path fill="#000" fill-rule="evenodd" d="M10 2a8 8 0 1 0 0 16 8 8 0 0 0 0-16m0 1.2c3.75 0 6.8 3.05 6.8 6.8s-3.05 6.8-6.8 6.8-6.8-3.05-6.8-6.8S6.25 3.2 10 3.2M8.002 13.32a.6.6 0 0 1-.6-.6V7.28a.6.6 0 1 1 1.2 0v5.44a.6.6 0 0 1-.6.6m3.996 0a.6.6 0 0 1-.6-.6V7.28a.6.6 0 1 1 1.2 0v5.44a.6.6 0 0 1-.6.6"/>
</svg>
